svg/python.svg

<?xml version="1.0" encoding="UTF-8"?>
<svg xmlns="http://www.w3.org/2000/svg" xmlns:xlink="http://www.w3.org/1999/xlink" width="32.167999" height="32" viewBox="0 0 32.167999 32">
<defs>
<linearGradient id="python-lp-0" gradientUnits="userSpaceOnUse" x1="55.549" y1="77.07" x2="110.149002" y2="131.852997" gradientTransform="matrix(0.29132, 0, 0, 0.29132, -13.091, -19.655001)">
<stop offset="0" stop-color="rgb(21.960784%, 49.411765%, 72.156863%)" stop-opacity="1"/>
<stop offset="1" stop-color="rgb(21.176471%, 41.176471%, 58.039216%)" stop-opacity="1"/>
</linearGradient>
<linearGradient id="python-lp-1" gradientUnits="userSpaceOnUse" x1="89.137001" y1="111.920998" x2="147.776993" y2="168.100998" gradientTransform="matrix(0.29132, 0, 0, 0.29132, -13.091, -19.655001)">
<stop offset="0" stop-color="rgb(100%, 87.843137%, 32.156863%)" stop-opacity="1"/>
<stop offset="1" stop-color="rgb(100%, 76.470588%, 19.215686%)" stop-opacity="1"/>
</linearGradient>
</defs>
<path fill-rule="nonzero" fill="url(#python-lp-0)" d="M 15.96875 0 C 7.800781 0 8.3125 3.542969 8.3125 3.542969 L 8.320312 7.210938 L 16.113281 7.210938 L 16.113281 8.3125 L 5.226562 8.3125 C 5.226562 8.3125 0 7.71875 0 15.957031 C 0 24.199219 4.5625 23.90625 4.5625 23.90625 L 7.28125 23.90625 L 7.28125 20.082031 C 7.28125 20.082031 7.136719 15.523438 11.769531 15.523438 L 19.5 15.523438 C 19.5 15.523438 23.84375 15.59375 23.84375 11.324219 L 23.84375 4.269531 C 23.84375 4.269531 24.5 0 15.96875 0 M 11.671875 2.46875 C 12.445312 2.46875 13.070312 3.097656 13.070312 3.871094 C 13.070312 4.644531 12.441406 5.269531 11.667969 5.269531 C 10.894531 5.269531 10.269531 4.640625 10.269531 3.867188 C 10.269531 3.09375 10.898438 2.46875 11.671875 2.46875 M 11.671875 2.46875 "/>
<path fill-rule="nonzero" fill="url(#python-lp-1)" d="M 16.199219 32 C 24.367188 32 23.855469 28.457031 23.855469 28.457031 L 23.847656 24.789062 L 16.054688 24.789062 L 16.054688 23.6875 L 26.941406 23.6875 C 26.941406 23.6875 32.167969 24.28125 32.167969 16.042969 C 32.167969 7.800781 27.605469 8.09375 27.605469 8.09375 L 24.882812 8.09375 L 24.882812 11.917969 C 24.882812 11.917969 25.03125 16.476562 20.394531 16.476562 L 12.667969 16.476562 C 12.667969 16.476562 8.324219 16.40625 8.324219 20.675781 L 8.324219 27.730469 C 8.324219 27.730469 7.664062 32 16.199219 32 M 20.496094 29.53125 C 20.125 29.53125 19.769531 29.386719 19.507812 29.121094 C 19.246094 28.859375 19.097656 28.503906 19.09375 28.132812 C 19.09375 27.761719 19.242188 27.402344 19.503906 27.140625 C 19.910156 26.742188 20.511719 26.625 21.035156 26.839844 C 21.558594 27.054688 21.898438 27.566406 21.898438 28.132812 C 21.898438 28.902344 21.269531 29.53125 20.496094 29.53125 M 20.496094 29.53125 "/>
</svg>

<svg role="img" viewBox="0 0 32.168 32" height="32" width="32.168" xmlns="http://www.w3.org/2000/svg"><defs><linearGradient gradientTransform="translate(-13.091 -19.655)scale(.29132)" gradientUnits="userSpaceOnUse" id="993__991__python-lp-0" x1="55.549" x2="110.149" y1="77.07" y2="131.853"><stop offset="0" stop-color="rgb(21.960784%, 49.411765%, 72.156863%)"/><stop offset="1" stop-color="rgb(21.176471%, 41.176471%, 58.039216%)"/></linearGradient><linearGradient gradientTransform="translate(-13.091 -19.655)scale(.29132)" gradientUnits="userSpaceOnUse" id="994__992__python-lp-1" x1="89.137" x2="147.777" y1="111.921" y2="168.101"><stop offset="0" stop-color="rgb(100%, 87.843137%, 32.156863%)"/><stop offset="1" stop-color="rgb(100%, 76.470588%, 19.215686%)"/></linearGradient></defs><path d="M15.969 0C7.8 0 8.313 3.543 8.313 3.543l.007 3.668h7.793v1.101H5.227S0 7.72 0 15.958c0 8.242 4.563 7.95 4.563 7.95H7.28v-3.825s-.144-4.559 4.489-4.559h7.73s4.344.07 4.344-4.199V4.27S24.5 0 15.969 0m-4.297 2.469a1.4 1.4 0 1 1-.004 2.8 1.4 1.4 0 0 1 .004-2.8m0 0" fill="url(#993__991__python-lp-0)"/><path d="M16.2 32c8.167 0 7.655-3.543 7.655-3.543l-.007-3.668h-7.793v-1.102H26.94s5.227.594 5.227-7.644c0-8.242-4.563-7.95-4.563-7.95h-2.722v3.825s.148 4.559-4.488 4.559h-7.727s-4.344-.07-4.344 4.199v7.054S7.664 32 16.2 32m4.297-2.469a1.38 1.38 0 0 1-.988-.41 1.42 1.42 0 0 1-.414-.988c0-.371.148-.73.41-.992a1.417 1.417 0 0 1 1.531-.301c.524.215.863.726.863 1.293 0 .77-.628 1.398-1.402 1.398m0 0" fill="url(#994__992__python-lp-1)"/></svg>
